input/symbols/flags/BhjFlag_Progress_Intersex_Left.svg

<?xml version="1.0" encoding="UTF-8"?>
<svg viewBox="0 0 1e3 1e3" xmlns="http://www.w3.org/2000/svg">
 <defs>
  <style>.cls-1,.cls-15,.cls-16{fill:none;}.cls-2{fill:#936026;}.cls-3{fill:#6d2a7f;}.cls-4{fill:#2e59a5;}.cls-5{fill:#78b943;}.cls-6{fill:#efe41f;}.cls-7{fill:#f18821;}.cls-8{fill:#e12726;}.cls-9{fill:#010101;}.cls-10{fill:#945724;}.cls-11{fill:#7ccce4;}.cls-12{fill:#f4afc8;}.cls-13{fill:#fff;}.cls-14{fill:#fcd812;}.cls-15{stroke:#67358c;}.cls-15,.cls-16{stroke-miterlimit:10;stroke-width:13.1px;}.cls-16{stroke:#fff;}.cls-17{fill:#55899b;}.cls-18{fill:#2e162e;}.cls-19{clip-path:url(#clip-path);}.cls-20{fill:#e5e6e6;}.cls-21{fill:#2f172e;}</style>
  <clipPath id="clip-path">
   <path class="cls-1" d="M190.37,901.55c-7.72-56.12-3.27-108.64,7.61-164.2,12.19-62.24,26.82-128.56,71.64-172.15,16.19-15.75,35.58-27.64,55.6-37.68C361.44,509.35,400.75,496.73,441,495s81.53,8.06,114.83,31.43c32.77,23,56.22,57.76,73.67,94.44s29.56,75.76,44.43,113.62a817.31,817.31,0,0,0,82.49,157.38c1.61,2.39,3.29,4.92,3.56,7.82s-1,5.85-2.3,8.5c-12.23,24.1-35.07,41.07-59.67,50.93s-51.11,13.36-77.35,16.27C536.41,984.8,451.14,989,367,978.7c-64.93-8-132.89-27.07-176.62-77.15"/>
  </clipPath>
 </defs>
 <g id="Layer_2" data-name="Layer 2">
  <path class="cls-2" d="M68.39,507.89C96,658,122.45,807.52,183.61,952c3.27,7.73-21.63,10.74-25,3C84.1,784.13,54.52,622.5,41.34,458.37"/>
  <path class="cls-3" d="M45.91,543c292.31,205.48,579.92-110.4,862.85,62.21Q946.4,369.87,987.3,137.51C672.83-83.09,353.66,276.13,29.8,95.69Q36.22,319.71,45.91,543Z"/>
  <path class="cls-4" d="M42.77,468.52c297.57,201.66,590.44-121.61,878.62,58.3q31.83-195.71,65.91-389.31C672.83-83.09,353.66,276.13,29.8,95.69Q35.15,282.38,42.77,468.52Z"/>
  <path class="cls-5" d="M39.82,394c302.82,197.7,600.95-132.9,894.39,54.59Q960,292.37,987.3,137.51C672.83-83.09,353.66,276.13,29.8,95.69Q34.07,245,39.82,394Z"/>
  <path class="cls-6" d="M37,319.5c308.08,193.6,611.47-144.26,910.17,51.08q19.63-116.94,40.09-233.07C672.83-83.09,353.66,276.13,29.8,95.69Q33,207.71,37,319.5Z"/>
  <path class="cls-7" d="m34.44 244.94c313.34 189.35 622-155.71 926 47.77q13.26-77.79 26.9-155.2c-314.51-220.6-633.68 138.62-957.54-41.82q2.13 74.67 4.64 149.25z"/>
  <path class="cls-8" d="M32,170.34C350.63,355.3,664.54,3.13,973.76,215q6.72-38.79,13.54-77.5C672.83-83.09,353.66,276.13,29.8,95.69Q30.87,133,32,170.34Z"/>
  <path class="cls-9" d="M45.91,543c76.83,54.32,153.33,72.2,229.51,72.41,86.13-77.49,176.77-181.8,271.91-283.11C464.39,271,376.67,217.18,284.19,146.56c-84.48,6.91-169.27-3.12-254.39-50.87Q36.22,319.71,45.91,543Z"/>
  <path class="cls-10" d="M45.91,543c58.9,41.65,117.61,61.87,176.13,69.14,85.33-66.29,175.17-164.89,269.51-266.86-84.08-59.8-172.93-117-266.55-196.9C160.12,146.73,95.05,132.3,29.8,95.69Q36.22,319.71,45.91,543Z"/>
  <path class="cls-11" d="M45.91,543C87,572.06,128.06,590.69,169,601.76c84.54-52.93,173.58-143.52,267.13-243.68-85.21-60.49-175.18-123.44-269.93-214.95A403.73,403.73,0,0,1,29.8,95.69Q36.22,319.71,45.91,543Z"/>
  <path class="cls-12" d="M45.91,543a404.56,404.56,0,0,0,69.63,39.81c83.74-37.26,172-117.44,264.74-213.34C293.94,306,202.83,235,107,129.24A408.05,408.05,0,0,1,29.8,95.69Q36.22,319.71,45.91,543Z"/>
  <path class="cls-13" d="M45.91,543q8.12,5.73,16.22,10.93C145,534.48,232.43,467,324.34,377.85,236.92,309.23,144.73,227.61,47.77,105.22q-9-4.48-18-9.53Q36.22,319.71,45.91,543Z"/>
  <path class="cls-14" d="m44.52 510.38c71.3-12 145.89-60.27 223.77-128.59-75.7-65-154.88-143.57-237.54-253.41q5.7 191.27 13.77 382z"/>
  <path class="cls-15" d="m60.44 333.29c0.88 26.19 29.11 63.72 62.94 75.58 33.83 12.06 61.16-5.82 61.18-32.69 0-27.16-28-52.43-62.74-63.72-34.71-11.09-62.25-5.46-61.38 20.83z"/>
  <path class="cls-16" d="m45.91 543q-3.91-90.56-7.32-181.18-0.78-21.15-1.59-42.32-2.64-74.5-5-149.16-0.2-6.06-0.38-12.11l-0.9-29.85q-0.45-16.38-0.92-32.69 9 5 18 9.53a402.14 402.14 0 0 0 118.42 37.91c39.4 6.19 78.73 6.64 118 3.43 236.92-19.78 471.29-171.12 703.11-9.05q-34.11 193.49-65.94 389.31-6.39 39.18-12.63 78.37c-225.92-137.35-454.82 35.22-686.76 6.93a373.87 373.87 0 0 1-106.5-29.33 404.56 404.56 0 0 1-69.59-39.79z"/>
 </g>
 <g id="Layer_5" data-name="Layer 5">
  <g id="Layer_6" data-name="Layer 6">
   <path class="cls-17" d="M190.37,901.55c-7.72-56.12-3.27-108.64,7.61-164.2,12.19-62.24,26.82-128.56,71.64-172.15,16.19-15.75,35.58-27.64,55.6-37.68C361.44,509.35,400.75,496.73,441,495s81.53,8.06,114.83,31.43c32.77,23,56.22,57.76,73.67,94.44s29.56,75.76,44.43,113.62a817.31,817.31,0,0,0,82.49,157.38c1.61,2.39,3.29,4.92,3.56,7.82s-1,5.85-2.3,8.5c-12.23,24.1-35.07,41.07-59.67,50.93s-51.11,13.36-77.35,16.27C536.41,984.8,451.14,989,367,978.7c-64.93-8-132.89-27.07-176.62-77.15"/>
   <ellipse class="cls-18" cx="548.44" cy="739.78" rx="52.8" ry="54.39"/>
   <path class="cls-17" d="m222.55 691c-20.92-4.13-43.08-2.65-63.92 1.75-26.17 5.52-52.65 17.14-63.22 37.11-10.4 19.65-2.62 43.06 13 60.34s38.05 29.69 60 41.76l76.05 41.76"/>
   <g class="cls-19">
    <path class="cls-20" d="M553.62,987.69C473,896.47,459,736.54,475.15,618.81c15.39-52,22.1-114.33-35.5-136.14C268.46,392.6,124,535.46,147.21,718.08c23.21,80.45-2.07,178.15,41.9,248.7C245.06,1054.3,533,1106.89,547.64,978"/>
   </g>
   <path class="cls-21" d="M416,577.72c-3.73,8.38-5.65,17.12-6.88,26.17-.66,4.81-1.21,9.63-1.83,14.44,0,.21-.06.42-.08.63-.15,1.15,0-.35.06-.48-.11.55-.15,1.13-.23,1.69-.16,1.12-.33,2.23-.51,3.35-.34,2.08-.73,4.16-1.18,6.21-.51,2.32-1.11,4.62-1.82,6.88-.38,1.2-.79,2.38-1.23,3.55-.2.52-.43,1-.62,1.56.69-1.88-.17.32-.36.73h11.33L391.56,608l-5.2-8.52c-1.9-3.11-3.73-6.4-6.89-8.4-6.66-4.22-14.54-.29-21.18,1.87q-9.26,3-18.62,5.68c-6.25,1.78-12.58,3.73-19,4.89a5.41,5.41,0,0,1-1.17.2c1.21.13.87-.1.33,0-.79.06-1.57.13-2.36.14-.39,0-2,.17-2.35-.09.31.26,1.24.23.35,0-.45-.1-.89-.18-1.32-.3s-2.21-.73-1.06-.33-.49-.29-.81-.48-.6-.39-.9-.58c-.56-.37-.09-.47.48.37a8.18,8.18,0,0,0-1.51-1.49c.09.05.93,1.36.38.49-.18-.29-.38-.58-.55-.88s-.2-.43-.32-.62c.83,1.32.41,1,.22.43-.09-.28-.15-.57-.23-.85-.31-1,.05.65.07.69a5.38,5.38,0,0,1,0-1.39l0-.46c-.15,1-.17,1.11-.05.38a58.91,58.91,0,0,1,2.81-8.61c.32-.83.64-1.66,1-2.48.12-.27.23-.54.34-.82l.34-.82c-.35.82-.43,1-.23.55.67-1.55,1.36-3.11,2.08-4.64q2.07-4.41,4.42-8.66a144.87,144.87,0,0,1,11-17,6.58,6.58,0,0,0,.66-5.06,6.69,6.69,0,0,0-3-3.92,6.6,6.6,0,0,0-5.06-.66,7.65,7.65,0,0,0-3.92,3,150.76,150.76,0,0,0-18.55,32.68c-2.64,6.3-6,13.37-4.63,20.34,1.28,6.58,7.14,11.6,13.37,13.41,7.07,2.05,14.49.08,21.38-1.72q9.66-2.5,19.21-5.39c6.31-1.91,12.53-4.09,18.82-6.06.68-.21,1.37-.38,2.06-.56,1.43-.36-1.54,0-.08,0,.27,0,.55,0,.82,0,1.36-.06-1.16-.34-.34-.08,1.21.39-.19,0-.23-.21s1.37,1,.33.12.44.56.47.56c-.34,0-.81-1.16-.31-.39.22.33.45.66.66,1,.41.65.8,1.3,1.2,2l2.6,4.26,24.2,39.61a6.64,6.64,0,0,0,5.67,3.25,6.46,6.46,0,0,0,5.66-3.25c3.87-8.29,5.87-17,7.14-26,.67-4.81,1.22-9.62,1.83-14.44.06-.49.13-1,.19-1.47s.26-1.22-.06.47c0-.27.07-.56.11-.84.16-1.12.32-2.24.5-3.36.33-2.09.7-4.17,1.13-6.24.49-2.32,1.06-4.63,1.74-6.91.37-1.2.76-2.39,1.19-3.57.19-.53.39-1,.6-1.57a4.37,4.37,0,0,0,.31-.78l-.33.8.33-.77a7.13,7.13,0,0,0,.67-5.06,6.7,6.7,0,0,0-3-3.92c-2.86-1.51-7.49-1-9,2.35Z"/>
  </g>
 </g>
</svg>

<svg xmlns="http://www.w3.org/2000/svg" xmlns:xlink="http://www.w3.org/1999/xlink" viewBox="0 0 1000 1000"><defs><style>.cls-1,.cls-15,.cls-16{fill:none;}.cls-2{fill:#936026;}.cls-3{fill:#6d2a7f;}.cls-4{fill:#2e59a5;}.cls-5{fill:#78b943;}.cls-6{fill:#efe41f;}.cls-7{fill:#f18821;}.cls-8{fill:#e12726;}.cls-9{fill:#010101;}.cls-10{fill:#945724;}.cls-11{fill:#7ccce4;}.cls-12{fill:#f4afc8;}.cls-13{fill:#fff;}.cls-14{fill:#fcd812;}.cls-15{stroke:#67358c;}.cls-15,.cls-16{stroke-miterlimit:10;stroke-width:13.1px;}.cls-16{stroke:#fff;}.cls-17{fill:#55899b;}.cls-18{fill:#2e162e;}.cls-19{clip-path:url(#clip-path);}.cls-20{fill:#e5e6e6;}.cls-21{fill:#2f172e;}</style><clipPath id="clip-path"><path class="cls-1" d="M190.37,901.55c-7.72-56.12-3.27-108.64,7.61-164.2,12.19-62.24,26.82-128.56,71.64-172.15,16.19-15.75,35.58-27.64,55.6-37.68C361.44,509.35,400.75,496.73,441,495s81.53,8.06,114.83,31.43c32.77,23,56.22,57.76,73.67,94.44s29.56,75.76,44.43,113.62a817.31,817.31,0,0,0,82.49,157.38c1.61,2.39,3.29,4.92,3.56,7.82s-1,5.85-2.3,8.5c-12.23,24.1-35.07,41.07-59.67,50.93s-51.11,13.36-77.35,16.27C536.41,984.8,451.14,989,367,978.7c-64.93-8-132.89-27.07-176.62-77.15"/></clipPath></defs><g id="Layer_2" data-name="Layer 2"><path class="cls-2" d="M68.39,507.89C96,658,122.45,807.52,183.61,952c3.27,7.73-21.63,10.74-25,3C84.1,784.13,54.52,622.5,41.34,458.37"/><path class="cls-3" d="M45.91,543c292.31,205.48,579.92-110.4,862.85,62.21Q946.4,369.87,987.3,137.51C672.83-83.09,353.66,276.13,29.8,95.69Q36.22,319.71,45.91,543Z"/><path class="cls-4" d="M42.77,468.52c297.57,201.66,590.44-121.61,878.62,58.3q31.83-195.71,65.91-389.31C672.83-83.09,353.66,276.13,29.8,95.69Q35.15,282.38,42.77,468.52Z"/><path class="cls-5" d="M39.82,394c302.82,197.7,600.95-132.9,894.39,54.59Q960,292.37,987.3,137.51C672.83-83.09,353.66,276.13,29.8,95.69Q34.07,245,39.82,394Z"/><path class="cls-6" d="M37,319.5c308.08,193.6,611.47-144.26,910.17,51.08q19.63-116.94,40.09-233.07C672.83-83.09,353.66,276.13,29.8,95.69Q33,207.71,37,319.5Z"/><path class="cls-7" d="M34.44,244.94c313.34,189.35,622-155.71,926,47.77q13.26-77.79,26.9-155.2C672.83-83.09,353.66,276.13,29.8,95.69Q31.93,170.36,34.44,244.94Z"/><path class="cls-8" d="M32,170.34C350.63,355.3,664.54,3.13,973.76,215q6.72-38.79,13.54-77.5C672.83-83.09,353.66,276.13,29.8,95.69Q30.87,133,32,170.34Z"/><path class="cls-9" d="M45.91,543c76.83,54.32,153.33,72.2,229.51,72.41,86.13-77.49,176.77-181.8,271.91-283.11C464.39,271,376.67,217.18,284.19,146.56c-84.48,6.91-169.27-3.12-254.39-50.87Q36.22,319.71,45.91,543Z"/><path class="cls-10" d="M45.91,543c58.9,41.65,117.61,61.87,176.13,69.14,85.33-66.29,175.17-164.89,269.51-266.86-84.08-59.8-172.93-117-266.55-196.9C160.12,146.73,95.05,132.3,29.8,95.69Q36.22,319.71,45.91,543Z"/><path class="cls-11" d="M45.91,543C87,572.06,128.06,590.69,169,601.76c84.54-52.93,173.58-143.52,267.13-243.68-85.21-60.49-175.18-123.44-269.93-214.95A403.73,403.73,0,0,1,29.8,95.69Q36.22,319.71,45.91,543Z"/><path class="cls-12" d="M45.91,543a404.56,404.56,0,0,0,69.63,39.81c83.74-37.26,172-117.44,264.74-213.34C293.94,306,202.83,235,107,129.24A408.05,408.05,0,0,1,29.8,95.69Q36.22,319.71,45.91,543Z"/><path class="cls-13" d="M45.91,543q8.12,5.73,16.22,10.93C145,534.48,232.43,467,324.34,377.85,236.92,309.23,144.73,227.61,47.77,105.22q-9-4.48-18-9.53Q36.22,319.71,45.91,543Z"/><path class="cls-14" d="M44.52,510.38c71.3-12,145.89-60.27,223.77-128.59-75.7-65-154.88-143.57-237.54-253.41Q36.45,319.65,44.52,510.38Z"/><path class="cls-15" d="M60.44,333.29c.88,26.19,29.11,63.72,62.94,75.58,33.83,12.06,61.16-5.82,61.18-32.69,0-27.16-28-52.43-62.74-63.72C87.11,301.37,59.57,307,60.44,333.29Z"/><path class="cls-16" d="M45.91,543Q42,452.44,38.59,361.82,37.81,340.67,37,319.5h0Q34.36,245,32,170.34h0q-.2-6.06-.38-12.11l-.9-29.85h0Q30.27,112,29.8,95.69q9,5,18,9.53h0a402.14,402.14,0,0,0,118.42,37.91h0c39.4,6.19,78.73,6.64,118,3.43h0c236.92-19.78,471.29-171.12,703.11-9.05Q953.22,331,921.39,526.82h0Q915,566,908.76,605.19C682.84,467.84,453.94,640.41,222,612.12h0a373.87,373.87,0,0,1-106.5-29.33h0A404.56,404.56,0,0,1,45.91,543Z"/></g><g id="Layer_5" data-name="Layer 5"><g id="Layer_6" data-name="Layer 6"><path class="cls-17" d="M190.37,901.55c-7.72-56.12-3.27-108.64,7.61-164.2,12.19-62.24,26.82-128.56,71.64-172.15,16.19-15.75,35.58-27.64,55.6-37.68C361.44,509.35,400.75,496.73,441,495s81.53,8.06,114.83,31.43c32.77,23,56.22,57.76,73.67,94.44s29.56,75.76,44.43,113.62a817.31,817.31,0,0,0,82.49,157.38c1.61,2.39,3.29,4.92,3.56,7.82s-1,5.85-2.3,8.5c-12.23,24.1-35.07,41.07-59.67,50.93s-51.11,13.36-77.35,16.27C536.41,984.8,451.14,989,367,978.7c-64.93-8-132.89-27.07-176.62-77.15"/><ellipse class="cls-18" cx="548.44" cy="739.78" rx="52.8" ry="54.39"/><path class="cls-17" d="M222.55,691c-20.92-4.13-43.08-2.65-63.92,1.75-26.17,5.52-52.65,17.14-63.22,37.11-10.4,19.65-2.62,43.06,13,60.34s38.05,29.69,60,41.76l76.05,41.76"/><g class="cls-19"><path class="cls-20" d="M553.62,987.69C473,896.47,459,736.54,475.15,618.81c15.39-52,22.1-114.33-35.5-136.14C268.46,392.6,124,535.46,147.21,718.08c23.21,80.45-2.07,178.15,41.9,248.7C245.06,1054.3,533,1106.89,547.64,978"/></g><path class="cls-21" d="M416,577.72c-3.73,8.38-5.65,17.12-6.88,26.17-.66,4.81-1.21,9.63-1.83,14.44,0,.21-.06.42-.08.63-.15,1.15,0-.35.06-.48-.11.55-.15,1.13-.23,1.69-.16,1.12-.33,2.23-.51,3.35-.34,2.08-.73,4.16-1.18,6.21-.51,2.32-1.11,4.62-1.82,6.88-.38,1.2-.79,2.38-1.23,3.55-.2.52-.43,1-.62,1.56.69-1.88-.17.32-.36.73h11.33L391.56,608l-5.2-8.52c-1.9-3.11-3.73-6.4-6.89-8.4-6.66-4.22-14.54-.29-21.18,1.87q-9.26,3-18.62,5.68c-6.25,1.78-12.58,3.73-19,4.89a5.41,5.41,0,0,1-1.17.2c1.21.13.87-.1.33,0-.79.06-1.57.13-2.36.14-.39,0-2,.17-2.35-.09.31.26,1.24.23.35,0-.45-.1-.89-.18-1.32-.3s-2.21-.73-1.06-.33-.49-.29-.81-.48-.6-.39-.9-.58c-.56-.37-.09-.47.48.37a8.18,8.18,0,0,0-1.51-1.49c.09.05.93,1.36.38.49-.18-.29-.38-.58-.55-.88s-.2-.43-.32-.62c.83,1.32.41,1,.22.43-.09-.28-.15-.57-.23-.85-.31-1,.05.65.07.69a5.38,5.38,0,0,1,0-1.39l0-.46c-.15,1-.17,1.11-.05.38a58.91,58.91,0,0,1,2.81-8.61c.32-.83.64-1.66,1-2.48.12-.27.23-.54.34-.82l.34-.82c-.35.82-.43,1-.23.55.67-1.55,1.36-3.11,2.08-4.64q2.07-4.41,4.42-8.66a144.87,144.87,0,0,1,11-17,6.58,6.58,0,0,0,.66-5.06,6.69,6.69,0,0,0-3-3.92,6.6,6.6,0,0,0-5.06-.66,7.65,7.65,0,0,0-3.92,3,150.76,150.76,0,0,0-18.55,32.68c-2.64,6.3-6,13.37-4.63,20.34,1.28,6.58,7.14,11.6,13.37,13.41,7.07,2.05,14.49.08,21.38-1.72q9.66-2.5,19.21-5.39c6.31-1.91,12.53-4.09,18.82-6.06.68-.21,1.37-.38,2.06-.56,1.43-.36-1.54,0-.08,0,.27,0,.55,0,.82,0,1.36-.06-1.16-.34-.34-.08,1.21.39-.19,0-.23-.21s1.37,1,.33.12.44.56.47.56c-.34,0-.81-1.16-.31-.39.22.33.45.66.66,1,.41.65.8,1.3,1.2,2l2.6,4.26,24.2,39.61a6.64,6.64,0,0,0,5.67,3.25,6.46,6.46,0,0,0,5.66-3.25c3.87-8.29,5.87-17,7.14-26,.67-4.81,1.22-9.62,1.83-14.44.06-.49.13-1,.19-1.47s.26-1.22-.06.47c0-.27.07-.56.11-.84.16-1.12.32-2.24.5-3.36.33-2.09.7-4.17,1.13-6.24.49-2.32,1.06-4.63,1.74-6.91.37-1.2.76-2.39,1.19-3.57.19-.53.39-1,.6-1.57a4.37,4.37,0,0,0,.31-.78l-.33.8.33-.77a7.13,7.13,0,0,0,.67-5.06,6.7,6.7,0,0,0-3-3.92c-2.86-1.51-7.49-1-9,2.35Z"/></g></g></svg>
